X:6
T: Világ, világ, de meguntam magamat
O: Diósad (Szilágy), Vég Gergely (68), 1914
M: 4/4
L: 1/4
Q: "Rubato"
K: F
g/f/f/c/ c/e/f/f/ | f>g c2 | 
c/d/e/f/ f/c/d/d/ | c G F2 z |
B/c/d/d/ f/d/d/c/ | dBF z |
B/c/d/d/ f/d/{/d}c/}B/ | G<G G z | 

